X:1
T:De tuin der liefde
T:De tuin der liefde
T:Wim Verkaik
C:Wim Verkaik
%%score [ 1 2 3 4 ]
L:1/8
Q:1/4=90
M:4/4
K:C
V:1 treble nm="Soprano" snm="S"
V:2 treble nm="Alto" snm="A"
V:3 treble-8 nm="Tenor" snm="T"
V:4 bass nm="Bass" snm="B"
V:1
"^Hooglied 4:16 en 5:1" z4 z2 z c | c4 AA A2- | A4 z2 z c | c4 AA A2- | A4 z2 z c | c4 AA A2- | %6
w: Steek|op, noor- den- wind.|* Steek|op, noor- den- wind.|* Steek|op, noor- den- wind.|
 A4 z2 z c | c4 z2 ^G2- | G8 | A2 A2 B4 |"^rit." A2 A2 B4 |"^rit." A2 A2 (3:2:2B4 B2 | %12
w: * Steek|op, Komm||zui- den- wind,|zui- den- wind,|zui- den- wind, en|
[M:3/4][Q:1/4=100]"^tempo 100" ^G3 G GG | =G6 | ^G3 G GG | =G4 G_A | _B2 c2 d2 | _e2 f2 f2 | %18
w: blaas o- ver mijn|tuin,|blaas o- ver mijn|tuin, dat zijn|geu- ren zich|ver- sprei- den.|
 z2 z2 _ed | c_B cB cB |"^rit." c_B cB cB |"^rit." c_B cB cB |"^rit." c_B cB _AB | c2 !fermata!c4 | %24
w: zich ver-|sprei- * * * * *||||* den.|
[Q:1/4=100]"^tempo 100" z2 Bc de | f6- | f6- | f6- | f2 e2 d2 | e2 c2 B2 | z2 Bc de | [df]6- | %32
w: Mo- ge dan mijn|lief|||* in zijn|tuin ko- men|Mo- ge dan mijn|lief|
 [df]6- | [df]6- | [df]2 e2 d2 | ^c2 A2 A2 | A2 A2 A2 | G4 G2 | F2 F2 F2 | E4 E2 | D2 E2 F2 | %41
w: ||* in zijn|tuin ko- men|en er ge-|nie- ten|en er ge-|nie- ten|en er ge-|
 G2 A2 _B2- | B2 A2 G2 |[M:4/4] F6 AA | [AB][AB][AB][AB] B2 A2 | G6 AA | [AB][AB][AB][AB] B2 A2 | %47
w: nie- * *||ten van de|kos- te- lij- ke vruch- *|ten. van de|kos- te- lij- ke vruch- *|
 G2 dd [de][de][de][de] | ee^ff d2 c2 | B8 ||[M:6/4] z12 | z12 | z12 | z6 z2 z2 A2 | %54
w: ten. van de kos- te- lij- ke|kos- te- lij- ke vruch- *|ten.||||Ik|
 B3 A AA B4 A2 | B4 AA c4 A2 | B4 AA B4 cd | e12 |[M:4/4] z2 ^ee =e4- | e2 ^cc c4 |"^rit." ^c2 z6 | %61
w: ben al in mijn tuin, mijn|zus- ter, mijn bruid; mijn|zus- ter, mijn zus- ter, mijn|bruid;|ik ver- gaar|* er mijn mir-|re,|
"^rit." z8 |[M:6/8][Q:1/4=80]"^tempo 80" E6- | E6- | E6- | E6- | E6- | E3- E2 ^F | ^FFF FFF | %69
w: |Du|||||* * ik|drink er mijn wijn en mijn|
 ^F3- F2 B | B^c^d edc | B6 || E^GB c2 c | Gce _e2 e | _Ac_e =e3 | edc BAG | A3 B3 | cGG _A2 A | %78
w: melk. * ik|drink er mijn wijn en mijn|melk.|Eet, Eet, Eet, vrien- den,|Eet, Eet, Eet, vrien- den,|Eet, * en drink|Eet, * en drink * *|vrien- den,|Eet, en drink vrien- den,|
 _E_Ac B2 B | E^GB c3 | cBA Gce | fed c2 c |] %82
w: Eet, en drink vrien- den,|Eet, * en drink|en * wordt dron- ken van|lief- * * * de.|
V:2
 z8 | z8 | E2 F2 ^G2 A2 | BA^GF E4 | E2 F2 ^G2 A2 | BA^GF E4 | E2 F2 ^G2 A2 | BA^GF E4 | %8
w: ||Kom, kom, kom, kom|zui- * den- * wind,|Kom, kom, kom, kom|zui- * den- * wind,|Kom, kom, kom, kom|zui- * den- * wind,|
 E2 F2 ^G2 A2 | BA^GF E4 | BA^GF E4 | BA^GF (3:2:2E4 E2 |[M:3/4] D6 | _E3 E EE | D6 | _E3 E EE | %16
w: Kom, kom, kom, kom|zui- * den- * wind,|zui- * den- * wind,|zui- * den- * wind, en|blaas|blaas o- ver mijn|tuin,|blaas o- ver mijn|
 _E6 | _A_B =B2 B2 | z2 z2 GF | _E6 | _A6 | G6 | F6 | =E2 !fermata!E4 | [FA]6 | z2 EF ^GA | %26
w: tuin,|zich ver- sprei- den.|zich ver-|sprei-||||* den.|Oh|Mo- ge dan mijn|
 B2 F^G AB | c6- | c2 B2 B2 | c2 A2 G2 | [FA]6 | z2 EF ^GA | B2 F^G AB | c6- | c2 B2 B2 | %35
w: lief Mo- ge dan mijn|lief|* in zijn|tuin ko- men|Oh|Mo- ge dan mijn|lief Mo- ge dan mijn|lief|* in zijn|
 A2 A2 A2 | z6 | ^C2 C2 C2 | D6 | B,4 B,2 | D2 _B,2 A,2 | D2 E2 F2 | G2 F2 E2 |[M:4/4] C2 FF GGGG | %44
w: tuin ko- men||en er ge-|nie-|* ten|en er ge-|nie- * *||ten van de kos- te- lij- ke|
 [FG][FG][FG][FG] G2 F2 | E2 FF GGGG | [FG][FG][FG][FG] G2 F2 | E6 [Ac][Ac] | %48
w: kos- te- lij- ke vruch- *|ten. van de kos- te- lij- ke|kos- te- lij- ke vruch- *|ten. van de|
 [Ac][Ac][Ac][Ac] G2 ^F2 | G8 ||[M:6/4] z12 | z12 | z2 z2 z2 z2 z2 F2 | G3 F FF G4 F2 | %54
w: kos- te- lij- ke vruch- *|ten.|||Ik|ben al in mijn tuin, mijn|
 G4 FF _A4 F2 | G3 F FF G4 F2 | G4 FF _A6- | A12 |[M:4/4] z2 ^GG A4- | A2 AA [AB]4 | %60
w: zus- ter, mijn bruid; Ik|ben al in mijn tuin, mijn|zus- ter, mijn bruid;||ik ver- gaar|* er mijn mir-|
"^rit." [AB]2 z2 z4 |"^rit." z8 |[M:6/8] ^C6- | C6- | C6- | C6 | ^F6- | F4- F^F | EEE ^DDD | %69
w: re,||Du|||||* * ik|drink er mijn wijn en mijn|
 E4- E^F | ^DE^F ^GFE | E3 ^D3 || B,2 E G2 G | EGc c2 c | _E2 _A =B3 | G2 G F2 =E | ^F3 AG=F | %77
w: melk. * ik|drink er mijn wijn en mijn|melk. *|Eet, Eet, vrien- den,|Eet, Eet, Eet, vrien- den,|Eet, en drink|Eet, en drink *|vrien- den, * *|
 GEC _E2 E | C_E_A A2 A | B,2 E =G3 | =AGF GAB | F2 G F2 E |] %82
w: Eet, en drink vrien- den,|Eet, en drink vrien- den,|Eet, en drink|en * wordt dron- ken van|lief- * * de.|
V:3
 E8- | E8- | E8- | E8- | E8- | E8- | E8 | z2 B6 | B2 A2 ^G2 F2 | E2 F2 ^G4 | E2 F2 ^G4 | %11
w: Zz|||||||Komm|Kom, kom, kom, kom|zui- den- wind,|zui- den- wind,|
 E2 F2 (3:2:2^G4 =G2 |[M:3/4] c6 | _B6 | c6 | _B6 | G4 c2- | c2 d4 | z2 z2 _BB | c6- | c6- | c6 | %22
w: zui- den- wind, en|blaas||||geu- *|* ren|zich ver-|sprei-|||
 _A6 | G2 !fermata!G4 | d6 | ^G6 | A6- | A6 | d6 | A6 | d6 | ^G6 | A6- | A6 | d6 | e6 | e2 d2 f2 | %37
w: |* den.|Oh||||||Oh||||||en er ge-|
 e4 e2 | A2 G2 B2 | d4 d2 | A2 _B2 c2 | d2 c2 d2 | G6 |[M:4/4] A6 dd | dddd d4 | c6 dd | dddd d4 | %47
w: nie- ten|en er ge-|nie- ten|en er ge-|nie- * *||ten van de|kos- te- lij- ke vruch-|ten. van de|kos- te- lij- ke vruch-|
 c6 dd | dddd d4 | d8 ||[M:6/4] z12 | z2 z2 z2 z2 z2 c2 | d3 c cc d4 c2 | d4 cc _e4 c2 | %54
w: ten. van de|kos- te- lij- ke vruch-|ten.||Ik|ben al in mijn tuin, mijn|zus- ter, mijn bruid; Ik|
 d3 c cc d4 c2 | d4 cc _e4 c2 | d4 cc d4 cc | d4 cc B6 |[M:4/4] z2 BB ^c4- | c2 ee e4 | %60
w: ben al in mijn tuin, mijn|zus- ter, mijn bruid; mijn|zus- ter, mijn zus- ter, mijn|zus- ter, mijn bruid;|ik ver- gaar|* er mijn mir-|
"^rit." e2 e2 [^c-^f]4 |"^rit." c2- [c^d]2 [^c^e]4 |[M:6/8] z z A ^GGA | BA^G z z z | z6 | %65
w: re, mijn bal-|* * sem,|ik eet er mijn|ho- ning- raat,||
 z z z z z A | BBd d2 c | B4- BA | GGA BAG | A4- AA | BBB B^AA | B6 || ^G B2 e2 e | ceg _a2 _A | %74
w: ik|eet er mijn ho- ning-|raat, * ik|drink er mijn wijn en mijn|melk. * ik|drink er mijn wijn en mijn|melk.|Eet, Eet, vrien- den,|Eet, Eet, Eet, vrien- den,|
 c _e2 _a3 | c2 c c2 =e | ^d3 fe=d | ecG c2 c | _Ac_e =e2 E | ^GBB e3 | e2 d BcB | c2 B d2 c |] %82
w: Eet, en drink|Eet, en drink *|vrien- den, * *|Eet, en drink vrien- den,|Eet, en drink vrien- den,|Eet, * en drink|en wordt dron- ken van|lief- * * de.|
V:4
 E,8- | E,8- | E,8- | E,8- | E,8- | E,8- | E,8 | E,8- | E,8 | D,2 D,2 E,4 | D,2 D,2 E,4 | %11
w: Zz|||||||||zui- den- wind,|zui- den- wind,|
 D,2 D,2 (3:2:2E,4 E,2 |[M:3/4] F,6 | _E,6 | F,6 | _E,6 | C,4 _A,2- | A,2 G,4 | z2 z2 G,G, | _A,6 | %20
w: zui- den- wind, en|blaas||||geu- *|* ren|zich ver-|sprei-|
 F,6 | _E,6 | _D,6 | C,2 !fermata!C,4 | B,,6- | B,,6 | D,6 | F,6 | G,6 | E,6 | B,,6- | B,,6 | D,6 | %33
w: |||* den.|Oh||||||Oh|||
 F,6 | G,6 | A,6 | _B,2 B,2 B,2 | A,4 A,2 | D,2 D,2 D,2 | E,4 E,2 | D,2 D,2 C,2 | _B,,2 A,,2 G,,2 | %42
w: |||en er ge-|nie- ten|en er ge-|nie- ten|en er ge-|nie- * *|
 C,6 |[M:4/4] F,,6 G,G, | G,G,G,G, G,4 | C,6 G,G, | G,G,G,G, G,4 | C,6 A,A, | A,A,A,A, D,4 | G,8 || %50
w: |ten van de|kos- te- lij- ke vruch-|ten. van de|kos- te- lij- ke vruch-|ten. van de|kos- te- lij- ke vruch-|ten.|
[M:6/4] z2 z2 z2 z2 z2 D,2 | E,3 D, D,D, E,4 D,2 | E,4 D,D, F,4 D,2 | E,3 D, D,D, C,4 D,2 | %54
w: Ik|ben al in mijn tuin, mijn|zus- ter, mijn bruid; Ik|ben al in mijn tuin, mijn|
 E,4 D,D, F,4 D,2 | E,3 D, D,D, C,4 D,2 | E,4 D,D, F,4 D,D, | D,12 |[M:4/4] ^C,C, C,4 A,,2- | %59
w: zus- ter, mijn bruid; Ik|ben al in mijn tuin, mijn|zus- ter, mijn zus- ter, mijn|bruid;|ik ver- gaar *|
 A,,2 A,,A,, A,,2 A,,2 |"^rit." z2 A,,2 [A,,^F,]4- |"^rit." [^F,,A,,F,]4 [^C,,^C,^G,]4 | %62
w: * er mijn mir- re,|mijn bal-|* sem,|
[M:6/8] z6 | z z z z z A, | =G,G,A, B,A,G, | A,4- A,A, | G,G,A, B,A,G, | A,4- A,A, | %68
w: |ik|drink er mijn wijn en mijn|melk. * ik|drink er mijn wijn en mijn|melk. * ik|
 B,,B,,C, ^D,D,C, | B,,4- B,,B, | ^G,G,^F, E,F,F, | B,,6 || E,2 D, C,2 C, | C2 _B, _A,2 A, | %74
w: drink er mijn wijn en mijn|melk. * ik|drink er mijn wijn en mijn|melk.|Eet, Eet, vrien- den,|Eet, Eet, vrien- den,|
 _A,2 _G, E,3 | E,2 E, C,2 C | B,3 B,,3 | C,C,_B,, _A,,2 A,, | _A,A,_G, E,2 E, | E,2 D, C,3 | %80
w: Eet, en drink|Eet, en drink *|vrien- den,|Eet, en drink vrien- den,|Eet, en drink vrien- den,|Eet, en drink|
 CC,D, E,F,G, | A,F,G, C,2 C, |] %82
w: en * wordt dron- ken van|lief- * * * de.|

